X:1
T:Conditor Alme Siderum
T:Johann Stadlmayr (1575 - 1648) Amen by Palestrina
T:Conditor Alme Siderum
T:Copyright © 2015 by The Choral Public Domain Library. Edition may be freely distributed, duplicated, performed or recorded.
T:Copyright © 2015 by The Choral Public Domain Library. Edition may be freely distributed, duplicated, performed or recorded.
T:Copyright © 2015 by The Choral Public Domain Library. Edition may be freely distributed, duplicated, performed or recorded.
T:Copyright © 2015 by The Choral Public Domain Library. Edition may be freely distributed, duplicated, performed or recorded.
T:Copyright © 2015 by The Choral Public Domain Library. Edition may be freely distributed, duplicated, performed or recorded.
T:Copyright © 2015 by The Choral Public Domain Library. Edition may be freely distributed, duplicated, performed or recorded.
T:Copyright © 2015 by The Choral Public Domain Library. Edition may be freely distributed, duplicated, performed or recorded.
C:Johann Stadlmayr
C:(1575 - 1648)
C:Amen by Palestrina
Z:Copyright © 2015 by The Choral Public Domain Library. Edition may be freely distributed, duplicated, performed or recorded.
%%score [ 1 2 3 4 ]
L:1/8
Q:1/2=56
M:4/4
K:C
V:1 treble nm="Soprano" snm="S."
V:2 treble nm="Alto" snm="A."
V:3 treble-8 transpose=-12 nm="Tenor" snm="T."
V:4 bass nm="Baritone" snm="Bar."
V:1
 z24 | z24 | z24 | z24 ||[M:4/2][Q:1/2=92] E8 C4 E4 | G12 G4 | A4 A4 G8 | z8 z4 G4 | A4 F4 G8 | %9
w: ||||2.~Qui con- do-|lens in-|ter- i- tu|mor-|tis pe- ri-|
 F8 E8 | D8 C8 | z8 z4 d4 | c4 A4 B4 c4 | B8 A8 | G16 | z8 z4 G4 | A4 B4 c4 B4 | A8 A8 | ^G16 || %19
w: re sae-|cu- lum|sal-|va- sti mun- dum|lan- gui-|dum|do-|nans re- is re-|me- di-|um.|
[Q:1/2=56] z24 | z24 | z24 | z24 ||[M:4/2][Q:1/2=92] E8 C4 E4 | G12 G4 | A4 A4 G8 | z8 z4 G4 | %27
w: ||||4.~Cu- jus for-|ti po-|ten- ti- ae|ge-|
 A4 F4 G8 | F8 E8 | D8 C8 | z8 z4 d4 | c4 A4 B4 c4 | B8 A8 | G16 | z8 z4 G4 | A4 B4 c4 B4 | A8 A8 | %37
w: nu cur- van-|tur o-|mni- a|cae-|le- sti- a, ter-|re- sti-|a|nu-|tu fa- ten- tur|sub- di-|
 ^G16 ||[Q:1/2=56][Q:1/2=56] z24 | z24 | z24 | z24 ||[M:4/2][Q:1/2=92] E8 C4 E4 | G12 G4 | %44
w: ta.|||||6.~Sit Chri- ste|rex pi-|
 A4 A4 G8 | z8 z4 G4 | A4 F4 G8 | F8 E8 | D8 C8 | z8 z4 d4 | c4 A4 B4 c4 | B8 A8 | G16 | z8 z4 G4 | %54
w: is- si- me|ti-|bi Pa- tri-|que glo-|ri- a|cum|Spi- ri- tu Pa-|ra- cli-|to|in|
 A4 B4 c4 B4 | A8 A8 | ^G16 ||[Q:1/2=56] A8 B4 A4 | ^G16 |] %59
w: sem- pi- ter- na|sae- cu-|la.|A- * *|men.|
V:2
 z24 | z24 | z24 | z24 ||[M:4/2] z8 E8 | C4 E4 G4 G4 | G4 ^F4 G8 | z16 | z4 D4 E4 C4 | D8 G,4 C4- | %10
w: ||||2.~Qui|con- do- lens in-|ter- i- tu||mor- tis pe-|ri- re sae-|
 C4 B,4 C4 E4 | D4 B,4 C4 F4 | E8 D8 | D16 | z4 D4 E4 F4 | G8 G8 | E16- | E8 E8 | E16 || z24 | %20
w: * cu- lum sal-|va- sti mun- dum|lan- gui-|dum|do- nans re-|is re-|me-|* di-|um.||
 z24 | z24 | z24 ||[M:4/2] z8 E8 | C4 E4 G4 G4 | G4 ^F4 G8 | z16 | z4 D4 E4 C4 | D8 G,4 C4- | %29
w: |||4.~Cu-|jus for- ti po-|ten- ti- ae||ge- nu cur-|van- tur o-|
 C4 B,4 C4 E4 | D4 B,4 C4 F4 | E8 D8 | D16 | z4 D4 E4 F4 | G8 G8 | E16- | E8 E8 | E16 || z24 | %39
w: * mni a cae-|le- sti- a, ter-|re- sti-|a|nu- tu fa-|ten- tur|sub-|* di-|ta.||
 z24 | z24 | z24 ||[M:4/2] z8 E8 | C4 E4 G4 G4 | G4 ^F4 G8 | z16 | z4 D4 E4 C4 | D8 G,4 C4- | %48
w: |||6.~Sit|Chri- ste rex pi-|is- si- me||ti- bi Pa-|tri- que glo-|
 C4 B,4 C4 E4 | D4 B,4 C4 F4 | E8 D8 | D16 | z4 D4 E4 F4 | G8 G8 | E16- | E8 E8 | E16 || %57
w: * ri- a cum|Spi- ri- tu Pa-|ra- cli-|to|in sem- pi-|ter- na|sae-|* cu-|la.|
 E4 F4 G4 C2 D2 | E16 |] %59
w: A- * * * *|men.|
V:3
 E2 C2 E2 G2 G2 A2 F2 G8 G2 | A2 F2 G2 F2 E2 D2 E8 x2 G2 | F2 D2 E2 F2 E2 D2 C8 x2 C2 | %3
w: 1.~Con- di- tor al- me si- de- rum ae-|ter- na lux cre- den- ti- um Chri-|ste re- dem- ptor o- mni- um e-|
 E2 F2 G2 F2 E2 D2 E8 x4 ||[M:4/2] z16 | z16 | z4 d8 e4 | c4 d8 B4 | c4 d6 c2 c4- | c4 B4 c8 | %10
w: xau- di pre- ces sup- pli- cum.|||2.~mor- tis|pe- ri- re|sae- * * *|* cu- lum|
 z8 z4 c4 | B4 G4 A4 B4 | c8 B4 A4 | G8 ^F8 | G16 | z8 B8 | c4 d4 e4 d4 | c8 c8 | B16 || %19
w: sal-|va- sti mun- dum|lan- * *|* gui-|dum|do-|nans re- is re-|me- di-|um.|
 E2 C2 E2 G2 G2 A2 F2 G8 G2 | A2 F2 G2 F2 E2 D2 E8 x2 G2 | F2 D2 E2 F2 E2 D2 C8 x2 C2 | %22
w: 3.~~Ver- gen- te mun- di ve- spe- re u-|ti spon- sus de tha- la- mo e-|gres- sus ho- ne- stis- si- ma Vir-|
 E2 F2 G2 F2 E2 D2 E8 x4 ||[M:4/2] z16 | z16 | z4 d8 e4 | c4 d8 B4 | c4 d6 c2 c4- | c4 B4 c8 | %29
w: gi- nis Ma- tris clau- su- la.|||4.~ge- nu|cur- van- tur|o- * * *|* mni- a|
 z8 z4 c4 | B4 G4 A4 B4 | c8 B4 A4 | G8 ^F8 | G16 | z8 B8 | c4 d4 e4 d4 | c8 c8 | B16 || %38
w: cae-|le- sti- a, ter-|re- * *|* sti-|a|nu-|tu fa- ten- tur|sub- di-|ta.|
 E2 C2 E2 G2 G2 A2 F2 G8 G2 | A2 F2 G2 F2 E2 D2 E8 x2 G2 | F2 D2 E2 F2 E2 D2 C8 x2 C2 | %41
w: 5.~Te, San- cte fi- de que- su- mus, ven-|tu- re ju- dex sae- cu- li, con-|ser- va nos in tem po- re ho-|
 E2 F2 G2 F2 E2 D2 E8 x4 ||[M:4/2] z16 | z16 | z4 d8 e4 | c4 d8 B4 | c4 d6 c2 c4- | c4 B4 c8 | %48
w: stis a te- lo per- fi- di.|||ti- bi|Pa- tri- que|glo- * * *|* ri- a|
 z8 z4 c4 | B4 G4 A4 B4 | c8 B4 A4 | G8 ^F8 | G16 | z8 B8 | c4 d4 e4 d4 | c8 c8 | B16 || %57
w: cum|Spi- ri- tu Pa-|ra- * *|* cli-|to|in|sem- pi- ter- na|sae- cu-|la.|
 c4 d6 G2 A4 | B16 |] %59
w: A- * * *|men.|
V:4
 z24 | z24 | z24 | z24 ||[M:4/2] z16 | z16 | z8 G,8 | A,4 F,4 G,8 | F,8 E,8 | D,8 C,8 | z16 | %11
w: ||||||2.~mor-|tis pe- ri-|re sae-|cu- lum||
 z4 G,4 F,4 D,4 | E,4 F,4 G,8- | G,8 D,8 | G,,8 C,8 | E,4 F,4 G,4 E,4 | A,,16- | A,,8 A,,8 | %18
w: sal- va- sti|mun- dum lan-|* gui-|dum do-|nans re- is re-|me-|* di-|
 E,16 || z24 | z24 | z24 | z24 ||[M:4/2] z16 | z16 | z8 G,8 | A,4 F,4 G,8 | F,8 E,8 | D,8 C,8 | %29
w: um.|||||||4.~ge-|nu cur- van-|tur o-|mni- a|
 z16 | z4 G,4 F,4 D,4 | E,4 F,4 G,8- | G,8 D,8 | G,,8 C,8 | E,4 F,4 G,4 E,4 | A,,16- | A,,8 A,,8 | %37
w: |cae- le- sti-|a, ter- re-|* sti-|a nu-|tu fa- ten- tur|sub-|* di-|
 E,16 || z24 | z24 | z24 | z24 ||[M:4/2] z16 | z16 | z8 G,8 | A,4 F,4 G,8 | F,8 E,8 | D,8 C,8 | %48
w: ta.|||||||ti-|bi Pa- tri-|que glo-|ri- a|
 z16 | z4 G,4 F,4 D,4 | E,4 F,4 G,8- | G,8 D,8 | G,,8 C,8 | E,4 F,4 G,4 E,4 | A,,16- | A,,8 A,,8 | %56
w: |cum Spi- ri-|tu Pa- ra-|* cli-|to in|sem- pi- ter- na|sae-|* cu-|
 E,16 || A,4 D,4 G,4 F,4 | E,16 |] %59
w: la.|A- * * *|men.|

